symbols/web/mail/materialsymbolsoutlined/mail_wght700grad200fill1_24px.svg

<svg xmlns="http://www.w3.org/2000/svg" height="24" width="24"><path d="M4.25 21.15q-1.425 0-2.412-1-.988-1-.988-2.4V6.25q0-1.4.988-2.4.987-1 2.412-1h15.5q1.425 0 2.413 1 .987 1 .987 2.4v11.5q0 1.4-.987 2.4-.988 1-2.413 1ZM12 14.3l7.75-5V6.25L12 11.3 4.25 6.25V9.3Z"/></svg>

<svg xmlns="http://www.w3.org/2000/svg" height="24" width="24"><path d="M4.25 21.15Q2.825 21.15 1.838 20.15Q0.85 19.15 0.85 17.75V6.25Q0.85 4.85 1.838 3.85Q2.825 2.85 4.25 2.85H19.75Q21.175 2.85 22.163 3.85Q23.15 4.85 23.15 6.25V17.75Q23.15 19.15 22.163 20.15Q21.175 21.15 19.75 21.15ZM12 14.3 19.75 9.3V6.25L12 11.3L4.25 6.25V9.3Z"/></svg>
